X: 4
T: Archibald McDonald Of Keppoch
R: waltz
M: 3/4
L: 1/8
K: Emin
V:1
|:E/F/|G>AB g>fe|d<BG A2E/F/|G>AB g>fe|B<e^d e2|
V:2
|:E/F/|E2B, E>FG|G2B F2E/F/|E2B, C2G|F2F E2|
V:1
|:E/F/|G>AB g>fe|d>BG A2E/F/|G>AB g>fe|B<e^d e2||
V:2
|:E/F/|E2B, E>FG|G2B F2E/F/|E2B, C2G|F2F E2||
V:1
e/f/|g>fe d>cB|c>BA B2E/F/|G>AB g>fe|B<e^d e2g/a/|
V:2
B/A/|G>AB B>AG|A>GF E2E/F/|E2B, C2G|F2F E2E/F/|
V:1
b>ag B<ge|d>BG A2E/F/|G>AB g>ab|B<e^d e2||
V:2
G>AB G2G|B2G F2E/F/|E2B, C2G|F<B,B, E2||


Tune 6999	Setting 6999

